X: 24416
T: Lovers', The
R: waltz
M: 3/4
K: Gmajor
|:DGB|d4 BG|E3 D CB,|(D6|D3) D GB|d4 BG|E3 D CB,|
A,2 B,2 ^c,2|D2 E2 G2|A3 G AB|A G3 ED|(D6|D3) D EG|
A3 G AB|A G3 ED|(d4 d)e|d3 A GF|G3 C GF|G3 C GF|
G3 C GF|G2 c3 B|G4 GF|G4 ED|B,2 E3 D|D4 GF|
E3 F G2|F2 G2 A2|B3 c BA|(G4 G)F|E2 F2 G2|
A2 G3F|1 G6|FG F2 D2:|2 G6|(A3|
K:D
|:A)df|a3 a fd|B3 A GF|(A6|A3) A df|a3 a fd|B3 A GF|
E2 F2 G2|A2 B2 d2|e3 d ef|e d3 BA|(A6|A3) A Bd|
e3 d ef|e d3 BA|(a4 a)b|a3 e dc|d3 e dc|d3 e dc|
d3 e dc|d2 g3 f|d4 dc|d4 BA|(B4 B)A/B/|A4 dc|
B3 c d2|c2 d2 e2|f3 g fe|d4 dc|B2 c2 d2|e2 d3 [1 c|(d6|d3):|2 b6|fd gf dA|G2 F2|

